X:1
T:Adeste Fideles TTBB
T:John F. Wade
T:TTBB adaptation Bacco Baccanels
%%score 1 2 3 4
L:1/8
M:4/4
K:F
V:1 treble-8 nm="Tenor" snm="T."
V:2 treble-8 nm="Tenor" snm="T."
V:3 bass nm="Bass" snm="B."
V:4 bass nm="Bass" snm="B."
V:1
 z6 c2 | c4 c2 A2 | c4 c4 | f2 e2 f2 f2 | f4 e2 d2 | d4 c2 c2 | (c2 d2) e2 c2 | c6 =B2 | c8 | %9
w: A-|de- ste fi-|de- les|lae- ti tri- um|phan- tes, ve-|ni- te ve-|ni _ te in|Beet- le-|hem.|
w: O|come- all ye-|faith- ful|joy- ful- and tri|um- phant! O|come ye, O|come _ ye to|Beet- le-|hem.|
 f4 f2 f2 | (f2 e2) f4 | e2 e2 d2 d2 | (c2 =B2) c2 A2 | A2 G2 A2 B2 | A4 A2 c2 | c2 c2 c2 c2 | %16
w: Na- tum vi-|de _ te|Re- gem- an- ge-|lo _ rum: ve-|ni- te a- do-|re- mus ve-|ni- te a- do-|
w: Come and be-|hold _ Him,|born the King of|an _ gels: O|come let us a-|dore Him! O|come let us a-|
 c2 d2 e2 e2 | f2 f2 d2 d2 | c4 (c2 d2) | f6 e2 | c c7 |] %21
w: re _ mus ve-|ni- te a- do-|re mus _|Do- o-|mi- num.|
w: dore _ Him, O|come let us a-|dore Him _|Chr- ist|the Lord!|
V:2
 z6 A2 | A4 F2 F2 | E4 G4 | c2 c2 c2 d2 | (c2 =B2) c2 A2 | (A2 =B2) c2 c2 | (c2 =B2) c2 F2 | %7
w: A-|de- ste fi-|de- les|lae- ti tri- um|phan- * tes, ve-|ni- * te ve-|ni _ te in|
w: O|come all ye|faith- ful|joy- ful and tri-|um _ phant! O|come _ ye, O|come _ ye to|
 G4 F4 | E8 | c4 c2 c2 | c4 c4 | c2 A2 A2 G2 | (G2 F2) E2 z2 | z8 | z4 z2 F2 | F2 E2 F2 G2 | %16
w: Bet- le-|hem.|Na- tum vi-|de- te|Re- gem- an- ge-|lo _ rum:||ve-|ni- te a- do-|
w: Bet- le-|hem.|Come and be-|hold Him,|born the King of|an _ gels:||O|come let us a-|
 F4 c2 _d2 | d2 c2 B2 G2 | G4 (F2 G2) | c4 B4 | A A7 |] %21
w: re- mus ve-|ni- te a- do-|re mus _|Do- o-|mi- num.|
w: dore Him, O|come let us a-|dore Him _|Chr- ist|the Lord!|
V:3
 z6 F,2 | F,4 C,2 F,2 | (G,2 E,2) C,4 | A,2 G,2 A,2 B,2 | A,4 G,2 F,2 | F,4 E,2 D,2 | %6
w: A-|de- ste fi-|de _ les|lae- ti tri- um|phan- tes, ve-|ni- te ve-|
w: O|come all ye|faith _ ful,|joy- ful and tri-|um- phant! O|come ye, O|
 (E,2 F,2) G,2 A,2 | E,4 D,4 | C,8 | C4 B,2 A,2 | B,4 A,4 | G,2 A,2 F,2 G,2 | (E,2 D,2) C,2 F,2 | %13
w: ni _ te in|Bet- le-|hem.|Na- tum vi-|de- te|Re- gem- an- ge-|lo _ rum: ve-|
w: come _ ye to|Be- etle-|hem.|Come and be-|hold Him,|born the King of|an _ gels: O|
 F,2 E,2 F,2 G,2 | F,4 C,2 A,2 | A,2 G,2 A,2 B,2 | A,4 G,2 A,2 | B,2 A,2 G,2 F,2 | E,4 (F,2 B,2) | %19
w: ni- te a- do-|re- mus ve-|ni- te a- do-|re- mus ve-|ni- te a- do-|re mus _|
w: come let us a-|dore Him! O|come let us a-|dore Him, O|come let us a-|dore Him _|
 A,4 G,4 | F, F,7 |] %21
w: Do- o-|mi- num.|
w: Chr- ist|the Lord!|
V:4
 z6 F,,2 | F,,4 A,,2 F,,2 | C,4 E,4 | F,2 C,2 F,2 B,,2 | C,4 C,2 D,2 | D,4 G,2 F,2 | %6
w: A-|de- ste fi-|de- les|lae- ti tri- um|phan- tes, ve-|ni- te ve-|
w: O|come all ye|faith- ful|joy- ful and tri-|um- phant! O|come ye, O|
 (E,2 D,2) C,2 F,2 | G,4 G,,4 | C,8 | A,4 G,2 F,2 | G,4 F,4 | C,2 ^C,2 D,2 =B,,2 | %12
w: ni _ te in|Bet- le-|hem.|Na- tum vi-|de- te|Re- gem- an- ge-|
w: come _ ye to|Bet- le-|hem.|Come and be-|hold Him,|born the King of|
 (C,2 G,,2) C,2 z2 | z8 | z8 | z8 | z4 z2 A,,2 | G,,2 A,,2 B,,2 =B,,2 | C,2 B,,2 (A,,2 G,,2) | %19
w: lo _ rum:||||ve-|ni- te a- do-|re _ mus _|
w: an _ gels:||||O|come let us a-|dore _ Him _|
 C,4 C,4 | F,, F,,7 |] %21
w: Do- o-|mi- num.|
w: Chr- ist|the Lord!|

